data/icons/oars/sandbox-location.svg

<?xml version="1.0" encoding="UTF-8" standalone="no"?>
<svg
   id="svg6"
   version="1.1"
   width="32"
   height="32"
   xmlns="http://www.w3.org/2000/svg"
   xmlns:svg="http://www.w3.org/2000/svg"
   xmlns:rdf="http://www.w3.org/1999/02/22-rdf-syntax-ns#"
   xmlns:cc="http://creativecommons.org/ns#"
   xmlns:dc="http://purl.org/dc/elements/1.1/">
  <metadata
     id="metadata12">
    <rdf:RDF>
      <cc:Work
         rdf:about="">
        <dc:format>image/svg+xml</dc:format>
        <dc:type
           rdf:resource="http://purl.org/dc/dcmitype/StillImage" />
      </cc:Work>
    </rdf:RDF>
  </metadata>
  <defs
     id="defs10" />
  <g
     id="g4"
     transform="translate(-872,-552)"
     color="#000000" />
  <path
     id="path2"
     style="color:#000000;font-variation-settings:normal;overflow:visible;opacity:1;vector-effect:none;fill:#555761;fill-opacity:1;stroke:none;stroke-width:4;stroke-linecap:round;stroke-linejoin:round;stroke-miterlimit:4;stroke-dasharray:none;stroke-dashoffset:0;stroke-opacity:1;-inkscape-stroke:none;marker:none;stop-color:#000000;stop-opacity:1"
     d="M 5,1 C 2.7840022,1 1,2.8084357 1,5 V 9 H 3 V 5 C 3,3.8920011 3.8920011,3 5,3 H 9 V 1 Z m 18,0 v 2 h 4 c 1.107999,0 1.731271,0.9250832 2,2 v 4 h 2 V 5 C 31,2.7840022 29.215998,1 27,1 Z m -0.48043,7.060508 c -0.21248,0.00526 -0.420621,0.060068 -0.609375,0.15625 L 6.2598047,15.316367 c -0.4708426,0.238387 -0.7786575,0.722941 -0.7792968,1.263672 0,0.784183 0.6357384,1.419922 1.4199218,1.419922 h 7.0996093 v 7.099609 c 0,0.784184 0.635739,1.419922 1.419922,1.419922 0.553131,0 1.031225,-0.317715 1.265625,-0.779297 l 7.134765,-15.693359 c 0.07597,-0.1733542 0.118748,-0.3658591 0.119141,-0.5664061 0,-0.784183 -0.635738,-1.4199219 -1.419922,-1.4199219 z M 1,23 v 4 c 0,2.215998 1.7840022,4 4,4 H 9 V 29 H 5 C 3.8920011,29 3,28.107999 3,27 v -4 z m 28,0 v 4 c 0,1.107999 -0.892001,2 -2,2 h -4 v 2 h 4 c 2.215998,0 4,-1.759601 4,-4 v -4 z" />
</svg>

<?xml version="1.0" encoding="UTF-8" standalone="no"?>
<svg
   id="svg6"
   version="1.1"
   width="32"
   height="32"
   xmlns="http://www.w3.org/2000/svg"
   xmlns:svg="http://www.w3.org/2000/svg"
   xmlns:rdf="http://www.w3.org/1999/02/22-rdf-syntax-ns#"
   xmlns:cc="http://creativecommons.org/ns#"
   xmlns:dc="http://purl.org/dc/elements/1.1/">
  <metadata
     id="metadata12">
    <rdf:RDF>
      <cc:Work
         rdf:about="">
        <dc:format>image/svg+xml</dc:format>
        <dc:type
           rdf:resource="http://purl.org/dc/dcmitype/StillImage" />
      </cc:Work>
    </rdf:RDF>
  </metadata>
  <defs
     id="defs10" />
  <g
     id="g4"
     transform="translate(-872,-552)"
     color="#000000" />
  <path
     id="path2"
     style="color:#000000;font-variation-settings:normal;overflow:visible;opacity:0.5;vector-effect:none;fill:#555761;fill-opacity:1;stroke:none;stroke-width:0.999994;stroke-linecap:round;stroke-linejoin:round;stroke-miterlimit:4;stroke-dasharray:none;stroke-dashoffset:0;stroke-opacity:0.5;-inkscape-stroke:none;marker:none;stop-color:#000000;stop-opacity:1"
     d="M 5 1 C 2.7840044 1 1 2.8084379 1 5 L 1 9 L 3 9 L 3 5 C 3 3.8920022 3.8920022 3 5 3 L 9 3 L 9 1 L 5 1 z M 23 1 L 23 3 L 27 3 C 28.107998 3 28.731271 3.9250843 29 5 L 29 9 L 31 9 L 31 5 C 31 2.7840044 29.215996 1 27 1 L 23 1 z M 22.519531 8.0605469 C 22.307051 8.0658069 22.09891 8.120615 21.910156 8.2167969 L 6.2597656 15.316406 C 5.7889235 15.554793 5.481108 16.039348 5.4804688 16.580078 C 5.4804688 17.36426 6.116208 18 6.9003906 18 L 14 18 L 14 25.099609 C 14 25.883793 14.63574 26.519531 15.419922 26.519531 C 15.515285 26.519531 15.607228 26.508231 15.697266 26.490234 C 17.013196 24.004776 18.380849 21.546513 19.716797 19.074219 L 23.820312 10.046875 C 23.896282 9.873521 23.93906 9.6810155 23.939453 9.4804688 C 23.939453 8.6962865 23.303714 8.0605469 22.519531 8.0605469 z M 1 23 L 1 27 C 1 29.215996 2.7840044 31 5 31 L 9 31 L 9 29 L 5 29 C 3.8920022 29 3 28.107998 3 27 L 3 23 L 1 23 z M 30.421875 23 C 30.614468 23.356846 30.807616 23.713342 31 24.070312 L 31 23 L 30.421875 23 z " />
  <path
     id="path829"
     style="color:#000000;font-weight:400;line-height:normal;font-family:sans-serif;font-variant-ligatures:normal;font-variant-position:normal;font-variant-caps:normal;font-variant-numeric:normal;font-variant-alternates:normal;font-feature-settings:normal;text-indent:0;text-align:start;text-decoration:none;text-decoration-line:none;text-decoration-style:solid;text-decoration-color:#000000;text-transform:none;text-orientation:mixed;white-space:normal;shape-padding:0;overflow:visible;isolation:auto;mix-blend-mode:normal;fill:#555761"
     d="m 23.962988,17.000505 a 1.499,1.499 0 0 0 -1.277344,0.785156 l -6.501953,12 c -0.542,0.999998 0.180408,2.216797 1.316406,2.216797 h 13 c 1.135998,0 1.858406,-1.215799 1.316406,-2.216797 l -6.498047,-12 a 1.496,1.496 0 0 0 -1.355468,-0.785156 z m 0.03906,4.001953 a 1,1 0 0 1 1,1 v 2.5 a 4.0615528,4.0615528 0 0 1 -0.121094,0.984375 l -0.257812,1.03125 a 0.6403882,0.6403882 0 0 1 -0.621094,0.484375 0.6403882,0.6403882 0 0 1 -0.621094,-0.484375 l -0.257812,-1.03125 a 4.0615528,4.0615528 0 0 1 -0.121094,-0.984375 v -2.5 a 1,1 0 0 1 1,-1 z m 0,7 a 1,1 0 0 1 0,2 1,1 0 0 1 0,-2 z" />
</svg>
